Include/imtgui/Resources/Icons/LogSearch.svg

<?xml version="1.0"?>
<svg xmlns="http://www.w3.org/2000/svg" height="512px" viewBox="1 1 511.999 511.999" width="512px"><path d="m45 392.015625s240.355469-.046875 242.011719-.046875c22.160156 0 44.316406-6.960938 62.882812-20.863281l20.90625 20.910156-10.605469 10.609375c-5.859374 5.855469-5.859374 15.355469 0 21.210938l75.003907 75.003906c8.773437 8.773437 20.296875 13.160156 31.820312 13.160156 11.523438 0 23.046875-4.386719 31.820313-13.160156 17.546875-17.546875 17.546875-46.097656 0-63.644532l-75.003906-75c-5.855469-5.859374-15.355469-5.859374-21.210938 0l-10.609375 10.605469-20.910156-20.90625c30.5625-40.816406 27.53125-98.984375-9.089844-136.359375v-77.53125c0-8.28125-6.71875-15-15-15h-45.003906v-106.003906c0-8.285156-6.714844-15-15-15h-272.011719c-8.285156 0-15 6.714844-15 15v332.015625c0 24.8125 20.1875 45 45 45zm432.625 64.394531c5.851562 5.851563 5.851562 15.367188 0 21.214844-5.847656 5.851562-15.363281 5.851562-21.214844 0l-64.394531-64.394531 21.214844-21.214844zm-137.578125-222.433594c29.242187 29.246094 29.242187 76.828126 0 106.070313s-76.828125 29.242187-106.070313 0c-29.242187-29.242187-29.242187-76.828125 0-106.070313 29.242188-29.242187 76.824219-29.246093 106.070313 0zm-8.035156-82.96875v41.132813c-9.574219-4.53125-19.695313-7.539063-30-9.015625v-32.117188zm-302.011719-121.007812h242.011719v153.125c-21.695313 3.105469-42.59375 12.984375-59.25 29.636719-8.742188 8.746093-15.613281 18.664062-20.621094 29.25h-117.136719c-8.285156 0-15 6.714843-15 15 0 8.28125 6.714844 14.988281 15 14.988281h108.121094c-1.421875 9.945312-1.421875 20.066406 0 30.011719h-108.121094c-8.285156 0-15 6.71875-15 15 0 8.285156 6.714844 15 15 15h117.136719c5.007813 10.585937 11.878906 20.503906 20.621094 29.25.257812.253906.515625.5.773437.753906h-168.535156c-8.269531 0-15-6.730469-15-15zm0 0" fill="#0d8dd3"/><path d="m75.003906 151.007812h152.003906c8.285157 0 15.003907-6.71875 15.003907-15.003906v-60c0-8.285156-6.71875-15-15.003907-15h-152.003906c-8.285156 0-15 6.714844-15 15v60c0 8.285156 6.714844 15.003906 15 15.003906zm15-60.003906h122.003906v30h-122.003906zm0 0" fill="#0d8dd3"/><path d="m75.003906 212.007812h92.003906c8.285157 0 15-6.714843 15-15 0-8.285156-6.714843-15-15-15h-92.003906c-8.285156 0-15 6.714844-15 15 0 8.285157 6.714844 15 15 15zm0 0" fill="#0d8dd3"/></svg>

<?xml version="1.0" encoding="UTF-8" standalone="no"?>
<svg
   xmlns:dc="http://purl.org/dc/elements/1.1/"
   xmlns:cc="http://creativecommons.org/ns#"
   xmlns:rdf="http://www.w3.org/1999/02/22-rdf-syntax-ns#"
   xmlns:svg="http://www.w3.org/2000/svg"
   xmlns="http://www.w3.org/2000/svg"
   xmlns:sodipodi="http://sodipodi.sourceforge.net/DTD/sodipodi-0.dtd"
   xmlns:inkscape="http://www.inkscape.org/namespaces/inkscape"
   height="512px"
   viewBox="1 1 511.999 511.999"
   width="512px"
   version="1.1"
   id="svg8"
   sodipodi:docname="LogSearch.svg"
   inkscape:version="0.92.2 (5c3e80d, 2017-08-06)">
  <metadata
     id="metadata14">
    <rdf:RDF>
      <cc:Work
         rdf:about="">
        <dc:format>image/svg+xml</dc:format>
        <dc:type
           rdf:resource="http://purl.org/dc/dcmitype/StillImage" />
      </cc:Work>
    </rdf:RDF>
  </metadata>
  <defs
     id="defs12" />
  <sodipodi:namedview
     pagecolor="#ffffff"
     bordercolor="#666666"
     borderopacity="1"
     objecttolerance="10"
     gridtolerance="10"
     guidetolerance="10"
     inkscape:pageopacity="0"
     inkscape:pageshadow="2"
     inkscape:window-width="2560"
     inkscape:window-height="1369"
     id="namedview10"
     showgrid="false"
     inkscape:zoom="0.4609375"
     inkscape:cx="-73.762712"
     inkscape:cy="256"
     inkscape:window-x="-11"
     inkscape:window-y="-11"
     inkscape:window-maximized="1"
     inkscape:current-layer="svg8" />
  <g
     id="g824"
     transform="matrix(0.93749817,0,0,0.93749817,16.999968,16.999968)">
    <path
       id="path2"
       d="m 45,392.01562 c 0,0 240.35547,-0.0469 242.01172,-0.0469 22.16015,0 44.3164,-6.96094 62.88281,-20.86328 l 20.90625,20.91015 -10.60547,10.60938 c -5.85937,5.85547 -5.85937,15.35547 0,21.21094 l 75.00391,75.0039 C 443.97266,507.61328 455.49609,512 467.01953,512 c 11.52344,0 23.04688,-4.38672 31.82031,-13.16016 17.54688,-17.54687 17.54688,-46.09765 0,-63.64453 l -75.0039,-75 c -5.85547,-5.85937 -15.35547,-5.85937 -21.21094,0 l -10.60938,10.60547 -20.91015,-20.90625 c 30.5625,-40.81641 27.53125,-98.98437 -9.08985,-136.35937 v -77.53125 c 0,-8.28125 -6.71875,-15 -15,-15 h -45.0039 V 15 c 0,-8.285156 -6.71485,-15 -15,-15 H 15 C 6.714844,0 0,6.714844 0,15 v 332.01562 c 0,24.8125 20.1875,45 45,45 z m 432.625,64.39454 c 5.85156,5.85156 5.85156,15.36718 0,21.21484 -5.84766,5.85156 -15.36328,5.85156 -21.21484,0 l -64.39454,-64.39453 21.21485,-21.21485 z M 340.04687,233.97656 c 29.24219,29.2461 29.24219,76.82813 0,106.07031 -29.24218,29.24219 -76.82812,29.24219 -106.07031,0 -29.24219,-29.24218 -29.24219,-76.82812 0,-106.07031 29.24219,-29.24219 76.82422,-29.24609 106.07031,0 z m -8.03515,-82.96875 v 41.13282 c -9.57422,-4.53125 -19.69531,-7.53907 -30,-9.01563 V 151.00781 Z M 30,30 h 242.01172 v 153.125 c -21.69531,3.10547 -42.59375,12.98438 -59.25,29.63672 -8.74219,8.74609 -15.61328,18.66406 -20.6211,29.25 H 75.003906 c -8.285156,0 -15,6.71484 -15,15 0,8.28125 6.714844,14.98828 15,14.98828 H 183.125 c -1.42188,9.94531 -1.42188,20.06641 0,30.01172 H 75.003906 c -8.285156,0 -15,6.71875 -15,15 0,8.28515 6.714844,15 15,15 H 192.14062 c 5.00782,10.58594 11.87891,20.5039 20.6211,29.25 0.25781,0.2539 0.51562,0.5 0.77344,0.7539 H 45 c -8.269531,0 -15,-6.73046 -15,-15 z m 0,0"
       inkscape:connector-curvature="0"
       style="fill:#0d8dd3" />
    <path
       id="path4"
       d="M 75.003906,151.00781 H 227.00781 c 8.28516,0 15.00391,-6.71875 15.00391,-15.0039 V 76.003906 c 0,-8.285156 -6.71875,-15 -15.00391,-15 H 75.003906 c -8.285156,0 -15,6.714844 -15,15 v 60.000004 c 0,8.28515 6.714844,15.0039 15,15.0039 z m 15,-60.003904 H 212.00781 V 121.00391 H 90.003906 Z m 0,0"
       inkscape:connector-curvature="0"
       style="fill:#0d8dd3" />
    <path
       id="path6"
       d="m 75.003906,212.00781 h 92.003904 c 8.28516,0 15,-6.71484 15,-15 0,-8.28515 -6.71484,-15 -15,-15 H 75.003906 c -8.285156,0 -15,6.71485 -15,15 0,8.28516 6.714844,15 15,15 z m 0,0"
       inkscape:connector-curvature="0"
       style="fill:#0d8dd3" />
  </g>
</svg>
